X:160
T:Pierre's Special
C:Andy De Jarlis
M:2/4
L:1/16
Z:abc by Bruce Osborne - bosborne@kos.net
K:G
G2BG dGBG|=F2A=F c=FA=F|G2BG dGBd|cBAc B2D2|!
G2BG dGBG|=F2A=F c=FA=F|G2BG dGBd|cBAc B2G2|!
K:F
B2dB fdBd|c2AF cFAc|B2dB fdBd|cBAc B2G2|!
B2dB fdBd|c2AF cFAc|B2dB fdBd|cBAc B4:|!
